X: 4002
T: Blackthorn Stick, The
R: reel
M: 4/4
K: Eminor
|:BEED B2AG|FDDE RF3A|BEED B2AG|FDDF EFGA|
BEED B2AG|FDDE RF3A|B2BA BddB|1 AFDF EFGA:|2 AFDF E3B||
|:e2BA BddB|AFDF E2f2|e2BA Bdde|fdfd e3f|
e2BA BddB|AFDF EFGA|B2BA BddB|1 AFDF E3B:|2 AFDF EFGA||

